public/assets/partners/inkind/mongodb-white.svg

<svg fill="none" height="278" viewBox="0 0 1102 278" width="1102" xmlns="http://www.w3.org/2000/svg"><g fill="#fff"><path d="m82.3229 28.6444c-10.7862-12.7975-20.0744-25.79495-21.9719-28.494429-.1998-.1999613-.4995-.1999613-.6992 0-1.8976 2.699479-11.1857 15.696929-21.972 28.494429-92.5817 118.0766 14.5815 197.7616 14.5815 197.7616l.8988.6c.7989 12.297 2.7964 29.994 2.7964 29.994h3.9949 3.9949s1.9975-17.597 2.7965-29.994l.8988-.7c.0998 0 107.2634-79.585 14.6813-197.6616zm-22.3715 195.9616s-4.7938-4.099-6.0922-6.199v-.199l5.7926-128.5755c0-.3999.5993-.3999.5993 0l5.7925 128.5755v.199c-1.2983 2.1-6.0922 6.199-6.0922 6.199z"/><path d="m260.501 197.588-44.656-108.2889-.1-.2991h-34.744v7.2791h5.607c1.702 0 3.304.6979 4.506 1.8945 1.201 1.1966 1.802 2.7924 1.802 4.4874l-1.001 108.986c0 3.39-2.803 6.182-6.208 6.282l-5.707.1v7.179h33.843v-7.179l-3.505-.1c-3.404-.1-6.208-2.892-6.208-6.282v-102.704l48.662 116.265c.7 1.695 2.302 2.792 4.105 2.792 1.802 0 3.404-1.097 4.105-2.792l47.56-113.673.701 100.112c0 3.49-2.804 6.282-6.308 6.382h-3.605v7.179h39.65v-7.179h-5.407c-3.404 0-6.208-2.892-6.308-6.282l-.3-108.987c0-3.4896 2.803-6.2815 6.208-6.3812l5.807-.0997v-7.2791h-33.843z"/><path d="m571.869 216.955c-1.105-1.106-1.707-2.613-1.707-4.422v-53.87c0-10.251-3.011-18.291-9.035-24.02-5.922-5.728-14.154-8.643-24.393-8.643-14.356 0-25.699 5.829-33.63 17.286-.1.201-.401.302-.702.302-.302 0-.502-.201-.502-.503l-3.715-14.371h-6.224l-15.961 9.145v5.025h4.116c1.907 0 3.513.503 4.618 1.508 1.104 1.005 1.706 2.513 1.706 4.623v63.417c0 1.809-.602 3.317-1.706 4.422-1.105 1.106-2.61 1.709-4.417 1.709h-4.016v7.336h36.741v-7.336h-4.015c-1.807 0-3.313-.603-4.417-1.709-1.104-1.105-1.707-2.613-1.707-4.422v-41.809c0-5.327 1.205-10.653 3.414-15.879 2.308-5.126 5.721-9.448 10.239-12.764 4.517-3.317 9.938-4.925 16.162-4.925 7.027 0 12.348 2.211 15.66 6.633 3.313 4.423 5.02 10.151 5.02 16.985v51.86c0 1.809-.603 3.316-1.707 4.422-1.104 1.105-2.61 1.708-4.417 1.708h-4.015v7.337h36.741v-7.337h-4.015c-1.506 0-2.912-.502-4.116-1.708z"/><path d="m907.546 97.212c-10.156-5.4079-21.507-8.212-33.754-8.212h-47.792v7.3107h4.68c1.792 0 3.385.701 4.978 2.3033 1.494 1.502 2.29 3.205 2.29 5.007v107.758c0 1.802-.796 3.505-2.29 5.007-1.493 1.502-3.186 2.303-4.978 2.303h-4.68v7.311h47.792c12.247 0 23.598-2.804 33.754-8.212 10.155-5.408 18.42-13.42 24.394-23.634 5.974-10.215 9.06-22.533 9.06-36.554 0-14.02-3.086-26.238-9.06-36.553-6.074-10.415-14.239-18.427-24.394-23.835zm14.238 60.188c0 12.819-2.29 23.634-6.771 32.347-4.48 8.713-10.455 15.222-17.823 19.428-7.367 4.207-15.532 6.31-24.294 6.31h-9.658c-1.792 0-3.385-.701-4.978-2.304-1.494-1.502-2.29-3.204-2.29-5.007v-101.548c0-1.803.697-3.405 2.29-5.008 1.493-1.502 3.186-2.3029 4.978-2.3029h9.658c8.762 0 16.927 2.1029 24.294 6.3089 7.368 4.206 13.343 10.716 17.823 19.429 4.481 8.712 6.771 19.528 6.771 32.347z"/><path d="m1053.97 164.711c-4.42-5.108-12.95-9.414-22.98-11.718 13.85-6.91 20.97-16.624 20.97-29.142 0-6.81-1.8-12.919-5.42-18.127-3.61-5.207-8.73-9.4133-15.25-12.3176-6.53-2.9042-14.16-4.4064-22.79-4.4064h-54.098v7.3107h4.316c1.806 0 3.412.701 5.018 2.3033 1.506 1.502 2.309 3.205 2.309 5.007v107.758c0 1.802-.803 3.505-2.309 5.007-1.505 1.502-3.212 2.303-5.018 2.303h-4.718v7.311h58.72c8.93 0 17.26-1.502 24.79-4.507 7.53-3.004 13.55-7.41 17.87-13.219 4.41-5.808 6.62-12.919 6.62-21.131-.1-8.813-2.71-16.223-8.03-22.432zm-67.349 48.57c-1.506-1.502-2.309-3.204-2.309-5.007v-48.37h27.908c9.83 0 17.36 2.503 22.58 7.51 5.22 5.008 7.83 11.517 7.83 19.529 0 4.807-1.21 9.514-3.41 13.82-2.31 4.407-5.73 7.912-10.34 10.616-4.52 2.704-10.14 4.106-16.66 4.106h-20.581c-1.806.1-3.412-.601-5.018-2.204zm-2.208-63.693v-42.962c0-1.803.702-3.405 2.308-5.008 1.506-1.502 3.212-2.3029 5.019-2.3029h13.25c9.53 0 16.56 2.4039 20.98 7.0099 4.41 4.707 6.62 10.716 6.62 18.127 0 7.611-2.11 13.72-6.22 18.327-4.12 4.506-10.34 6.809-18.57 6.809z"/><path d="m431.999 132.387c-7.67-4.191-16.236-6.387-25.499-6.387s-17.929 2.096-25.499 6.387c-7.67 4.192-13.746 10.28-18.228 17.965s-6.773 16.668-6.773 26.648 2.291 18.963 6.773 26.648 10.558 13.773 18.228 17.965c7.67 4.191 16.236 6.387 25.499 6.387s17.929-2.096 25.499-6.387c7.67-4.192 13.746-10.28 18.228-17.965s6.773-16.668 6.773-26.648-2.291-18.963-6.773-26.648c-4.482-7.784-10.558-13.773-18.228-17.965zm7.371 44.613c0 12.276-2.988 22.256-8.965 29.442-5.876 7.186-13.944 10.879-23.905 10.879-9.96 0-18.029-3.693-23.905-10.879-5.977-7.186-8.965-17.166-8.965-29.442s2.988-22.256 8.965-29.442c5.876-7.186 13.945-10.879 23.905-10.879 9.961 0 18.029 3.693 23.905 10.879 5.977 7.186 8.965 17.066 8.965 29.442z"/><path d="m784.999 132.387c-7.67-4.191-16.236-6.387-25.499-6.387s-17.929 2.096-25.499 6.387c-7.67 4.192-13.746 10.28-18.228 17.965s-6.773 16.668-6.773 26.648 2.291 18.963 6.773 26.648 10.558 13.773 18.228 17.965c7.67 4.191 16.236 6.387 25.499 6.387s17.929-2.096 25.499-6.387c7.67-4.192 13.746-10.28 18.228-17.965s6.773-16.668 6.773-26.648-2.291-18.963-6.773-26.648c-4.482-7.784-10.658-13.773-18.228-17.965zm7.371 44.613c0 12.276-2.989 22.256-8.965 29.442-5.877 7.186-13.945 10.879-23.905 10.879-9.961 0-18.029-3.693-23.905-10.879-5.977-7.186-8.965-17.166-8.965-29.442 0-12.376 2.988-22.256 8.965-29.442 5.876-7.186 13.944-10.879 23.905-10.879 9.96 0 18.028 3.693 23.905 10.879s8.965 17.066 8.965 29.442z"/><path d="m642.64 126c-8.026 0-15.348 1.704-21.969 5.113s-11.837 8.022-15.549 13.937c-3.711 5.815-5.617 12.333-5.617 19.251 0 6.216 1.404 11.931 4.313 17.045 2.809 4.913 6.621 9.023 11.436 12.432l-14.345 19.452c-1.806 2.406-2.006 5.614-.702 8.221 1.404 2.707 4.012 4.312 7.022 4.312h4.113c-4.013 2.707-7.223 5.915-9.43 9.725-2.608 4.311-3.912 8.823-3.912 13.435 0 8.623 3.812 15.742 11.335 21.056 7.424 5.314 17.856 8.021 30.997 8.021 9.129 0 17.856-1.504 25.781-4.412 8.025-2.907 14.545-7.219 19.36-12.833 4.916-5.615 7.424-12.433 7.424-20.254 0-8.221-3.01-14.037-10.032-19.651-6.018-4.713-15.448-7.219-27.185-7.219h-40.125c-.1 0-.201-.101-.201-.101s-.1-.2 0-.3l10.433-14.037c2.809 1.303 5.417 2.105 7.724 2.606 2.407.502 5.116.702 8.125.702 8.427 0 16.051-1.704 22.671-5.113 6.621-3.409 11.938-8.021 15.75-13.937 3.811-5.815 5.717-12.332 5.717-19.25 0-7.42-3.611-20.956-13.442-27.874 0-.1.101-.1.101-.1l21.567 2.406v-9.926h-34.508c-5.417-1.805-11.034-2.707-16.852-2.707zm12.037 62.765c-3.812 2.005-7.925 3.108-12.037 3.108-6.721 0-12.64-2.406-17.656-7.118-5.015-4.713-7.523-11.631-7.523-20.454s2.508-15.742 7.523-20.454c5.016-4.712 10.935-7.119 17.656-7.119 4.213 0 8.225 1.003 12.037 3.108 3.812 2.006 6.922 5.114 9.43 9.225 2.407 4.111 3.711 9.224 3.711 15.24 0 6.116-1.204 11.229-3.711 15.24-2.408 4.111-5.618 7.119-9.43 9.224zm-27.185 36.897h27.185c7.524 0 12.339 1.504 15.549 4.713 3.21 3.208 4.815 7.519 4.815 12.533 0 7.319-2.909 13.335-8.727 17.847-5.819 4.512-13.643 6.818-23.273 6.818-8.427 0-15.449-1.905-20.565-5.515-5.116-3.609-7.724-9.124-7.724-16.142 0-4.412 1.204-8.523 3.612-12.132 2.407-3.61 5.316-6.217 9.128-8.122z"/><path d="m1082.35 224.327c-1.98-1.083-3.47-2.658-4.66-4.528-1.09-1.968-1.69-4.035-1.69-6.299s.6-4.429 1.69-6.299c1.09-1.969 2.68-3.445 4.66-4.528 1.99-1.082 4.17-1.673 6.65-1.673s4.66.591 6.65 1.673c1.98 1.083 3.47 2.658 4.66 4.528 1.09 1.968 1.69 4.035 1.69 6.299s-.6 4.429-1.69 6.299c-1.09 1.969-2.68 3.445-4.66 4.528-1.99 1.082-4.17 1.673-6.65 1.673-2.38 0-4.66-.591-6.65-1.673zm12.21-1.477c1.68-.885 2.88-2.263 3.87-3.838.89-1.673 1.39-3.543 1.39-5.61s-.5-3.937-1.39-5.611c-.9-1.673-2.19-2.952-3.87-3.838-1.69-.886-3.48-1.378-5.56-1.378s-3.87.492-5.56 1.378c-1.68.886-2.88 2.264-3.87 3.838-.89 1.674-1.39 3.544-1.39 5.611s.5 3.937 1.39 5.61c.9 1.673 2.19 2.953 3.87 3.838 1.69.886 3.48 1.378 5.56 1.378s3.97-.393 5.56-1.378zm-10.92-3.444v-.886l.2-.099h.6c.19 0 .39-.098.49-.197.2-.196.2-.295.2-.492v-9.153c0-.197-.1-.394-.2-.492-.2-.197-.3-.197-.49-.197h-.6l-.2-.099v-.885l.2-.099h5.16c1.49 0 2.58.295 3.47.984.9.689 1.29 1.575 1.29 2.756 0 .886-.29 1.772-.99 2.362-.69.689-1.49 1.083-2.48 1.182l1.19.393 2.28 3.642c.2.295.4.394.7.394h.59l.1.098v.886l-.1.098h-3.07l-.2-.098-3.18-5.315h-.79v3.543c0 .197.1.394.2.492.2.197.3.197.49.197h.6l.2.099v.886l-.2.098h-5.26zm5.06-6.398c.8 0 1.49-.197 1.89-.689.39-.394.69-1.083.69-1.87 0-.788-.2-1.378-.59-1.87-.4-.492-1-.689-1.69-.689h-.4c-.2 0-.39.098-.49.197-.2.196-.2.295-.2.492v4.429z"/></g></svg>

<svg width="1102" height="278" viewBox="0 0 1102 278" fill="none" xmlns="http://www.w3.org/2000/svg">
<path d="M82.3229 28.6444C71.5367 15.8469 62.2485 2.84945 60.351 0.149971C60.1512 -0.0499903 59.8515 -0.0499903 59.6518 0.149971C57.7542 2.84945 48.4661 15.8469 37.6798 28.6444C-54.9019 146.721 52.2613 226.406 52.2613 226.406L53.1601 227.006C53.959 239.303 55.9565 257 55.9565 257H59.9514H63.9463C63.9463 257 65.9438 239.403 66.7428 227.006L67.6416 226.306C67.7414 226.306 174.905 146.721 82.3229 28.6444ZM59.9514 224.606C59.9514 224.606 55.1576 220.507 53.8592 218.407V218.208L59.6518 89.6325C59.6518 89.2326 60.2511 89.2326 60.2511 89.6325L66.0436 218.208V218.407C64.7453 220.507 59.9514 224.606 59.9514 224.606Z" fill="white"/>
<path d="M260.501 197.588L215.845 89.2991L215.745 89H181.001V96.2791H186.608C188.31 96.2791 189.912 96.977 191.114 98.1736C192.315 99.3702 192.916 100.966 192.916 102.661L191.915 211.647C191.915 215.037 189.112 217.829 185.707 217.929L180 218.029V225.208H213.843V218.029L210.338 217.929C206.934 217.829 204.13 215.037 204.13 211.647V108.943L252.792 225.208C253.492 226.903 255.094 228 256.897 228C258.699 228 260.301 226.903 261.002 225.208L308.562 111.535L309.263 211.647C309.263 215.137 306.459 217.929 302.955 218.029H299.35V225.208H339V218.029H333.593C330.189 218.029 327.385 215.137 327.285 211.747L326.985 102.76C326.985 99.2704 329.788 96.4785 333.193 96.3788L339 96.2791V89H305.157L260.501 197.588Z" fill="white"/>
<path d="M571.869 216.955C570.764 215.849 570.162 214.342 570.162 212.533V158.663C570.162 148.412 567.151 140.372 561.127 134.643C555.205 128.915 546.973 126 536.734 126C522.378 126 511.035 131.829 503.104 143.286C503.004 143.487 502.703 143.588 502.402 143.588C502.1 143.588 501.9 143.387 501.9 143.085L498.185 128.714H491.961L476 137.859V142.884H480.116C482.023 142.884 483.629 143.387 484.734 144.392C485.838 145.397 486.44 146.905 486.44 149.015V212.432C486.44 214.241 485.838 215.749 484.734 216.854C483.629 217.96 482.124 218.563 480.317 218.563H476.301V225.899H513.042V218.563H509.027C507.22 218.563 505.714 217.96 504.61 216.854C503.506 215.749 502.903 214.241 502.903 212.432V170.623C502.903 165.296 504.108 159.97 506.317 154.744C508.625 149.618 512.038 145.296 516.556 141.98C521.073 138.663 526.494 137.055 532.718 137.055C539.745 137.055 545.066 139.266 548.378 143.688C551.691 148.111 553.398 153.839 553.398 160.673V212.533C553.398 214.342 552.795 215.849 551.691 216.955C550.587 218.06 549.081 218.663 547.274 218.663H543.259V226H580V218.663H575.985C574.479 218.663 573.073 218.161 571.869 216.955Z" fill="white"/>
<path d="M907.546 97.212C897.39 91.8041 886.039 89 873.792 89H826V96.3107H830.68C832.472 96.3107 834.065 97.0117 835.658 98.614C837.152 100.116 837.948 101.819 837.948 103.621V211.379C837.948 213.181 837.152 214.884 835.658 216.386C834.165 217.888 832.472 218.689 830.68 218.689H826V226H873.792C886.039 226 897.39 223.196 907.546 217.788C917.701 212.38 925.966 204.368 931.94 194.154C937.914 183.939 941 171.621 941 157.6C941 143.58 937.914 131.362 931.94 121.047C925.866 110.632 917.701 102.62 907.546 97.212ZM921.784 157.4C921.784 170.219 919.494 181.034 915.013 189.747C910.533 198.46 904.558 204.969 897.19 209.175C889.823 213.382 881.658 215.485 872.896 215.485H863.238C861.446 215.485 859.853 214.784 858.26 213.181C856.766 211.679 855.97 209.977 855.97 208.174V106.626C855.97 104.823 856.667 103.221 858.26 101.618C859.753 100.116 861.446 99.3151 863.238 99.3151H872.896C881.658 99.3151 889.823 101.418 897.19 105.624C904.558 109.83 910.533 116.34 915.013 125.053C919.494 133.765 921.784 144.581 921.784 157.4Z" fill="white"/>
<path d="M1053.97 164.711C1049.55 159.603 1041.02 155.297 1030.99 152.993C1044.84 146.083 1051.96 136.369 1051.96 123.851C1051.96 117.041 1050.16 110.932 1046.54 105.724C1042.93 100.517 1037.81 96.3107 1031.29 93.4064C1024.76 90.5022 1017.13 89 1008.5 89H954.402V96.3107H958.718C960.524 96.3107 962.13 97.0117 963.736 98.614C965.242 100.116 966.045 101.819 966.045 103.621V211.379C966.045 213.181 965.242 214.884 963.736 216.386C962.231 217.888 960.524 218.689 958.718 218.689H954V226H1012.72C1021.65 226 1029.98 224.498 1037.51 221.493C1045.04 218.489 1051.06 214.083 1055.38 208.274C1059.79 202.466 1062 195.355 1062 187.143C1061.9 178.33 1059.29 170.92 1053.97 164.711ZM986.621 213.281C985.115 211.779 984.312 210.077 984.312 208.274V159.904H1012.22C1022.05 159.904 1029.58 162.407 1034.8 167.414C1040.02 172.422 1042.63 178.931 1042.63 186.943C1042.63 191.75 1041.42 196.457 1039.22 200.763C1036.91 205.17 1033.49 208.675 1028.88 211.379C1024.36 214.083 1018.74 215.485 1012.22 215.485H991.639C989.833 215.585 988.227 214.884 986.621 213.281ZM984.413 149.588V106.626C984.413 104.823 985.115 103.221 986.721 101.618C988.227 100.116 989.933 99.3151 991.74 99.3151H1004.99C1014.52 99.3151 1021.55 101.719 1025.97 106.325C1030.38 111.032 1032.59 117.041 1032.59 124.452C1032.59 132.063 1030.48 138.172 1026.37 142.779C1022.25 147.285 1016.03 149.588 1007.8 149.588H984.413Z" fill="white"/>
<path d="M431.999 132.387C424.329 128.196 415.763 126 406.5 126C397.237 126 388.571 128.096 381.001 132.387C373.331 136.579 367.255 142.667 362.773 150.352C358.291 158.037 356 167.02 356 177C356 186.98 358.291 195.963 362.773 203.648C367.255 211.333 373.331 217.421 381.001 221.613C388.671 225.804 397.237 228 406.5 228C415.763 228 424.429 225.904 431.999 221.613C439.669 217.421 445.745 211.333 450.227 203.648C454.709 195.963 457 186.98 457 177C457 167.02 454.709 158.037 450.227 150.352C445.745 142.568 439.669 136.579 431.999 132.387ZM439.37 177C439.37 189.276 436.382 199.256 430.405 206.442C424.529 213.628 416.461 217.321 406.5 217.321C396.54 217.321 388.471 213.628 382.595 206.442C376.618 199.256 373.63 189.276 373.63 177C373.63 164.724 376.618 154.744 382.595 147.558C388.471 140.372 396.54 136.679 406.5 136.679C416.461 136.679 424.529 140.372 430.405 147.558C436.382 154.744 439.37 164.624 439.37 177Z" fill="white"/>
<path d="M784.999 132.387C777.329 128.196 768.763 126 759.5 126C750.237 126 741.571 128.096 734.001 132.387C726.331 136.579 720.255 142.667 715.773 150.352C711.291 158.037 709 167.02 709 177C709 186.98 711.291 195.963 715.773 203.648C720.255 211.333 726.331 217.421 734.001 221.613C741.671 225.804 750.237 228 759.5 228C768.763 228 777.429 225.904 784.999 221.613C792.669 217.421 798.745 211.333 803.227 203.648C807.709 195.963 810 186.98 810 177C810 167.02 807.709 158.037 803.227 150.352C798.745 142.568 792.569 136.579 784.999 132.387ZM792.37 177C792.37 189.276 789.381 199.256 783.405 206.442C777.528 213.628 769.46 217.321 759.5 217.321C749.539 217.321 741.471 213.628 735.595 206.442C729.618 199.256 726.63 189.276 726.63 177C726.63 164.624 729.618 154.744 735.595 147.558C741.471 140.372 749.539 136.679 759.5 136.679C769.46 136.679 777.528 140.372 783.405 147.558C789.282 154.744 792.37 164.624 792.37 177Z" fill="white"/>
<path d="M642.64 126C634.614 126 627.292 127.704 620.671 131.113C614.05 134.522 608.834 139.135 605.122 145.05C601.411 150.865 599.505 157.383 599.505 164.301C599.505 170.517 600.909 176.232 603.818 181.346C606.627 186.259 610.439 190.369 615.254 193.778L600.909 213.23C599.103 215.636 598.903 218.844 600.207 221.451C601.611 224.158 604.219 225.763 607.229 225.763H611.342C607.329 228.47 604.119 231.678 601.912 235.488C599.304 239.799 598 244.311 598 248.923C598 257.546 601.812 264.665 609.335 269.979C616.759 275.293 627.191 278 640.332 278C649.461 278 658.188 276.496 666.113 273.588C674.138 270.681 680.658 266.369 685.473 260.755C690.389 255.14 692.897 248.322 692.897 240.501C692.897 232.28 689.887 226.464 682.865 220.85C676.847 216.137 667.417 213.631 655.68 213.631H615.555C615.455 213.631 615.354 213.53 615.354 213.53C615.354 213.53 615.254 213.33 615.354 213.23L625.787 199.193C628.596 200.496 631.204 201.298 633.511 201.799C635.918 202.301 638.627 202.501 641.636 202.501C650.063 202.501 657.687 200.797 664.307 197.388C670.928 193.979 676.245 189.367 680.057 183.451C683.868 177.636 685.774 171.119 685.774 164.201C685.774 156.781 682.163 143.245 672.332 136.327C672.332 136.227 672.433 136.227 672.433 136.227L694 138.633V128.707H659.492C654.075 126.902 648.458 126 642.64 126ZM654.677 188.765C650.865 190.77 646.752 191.873 642.64 191.873C635.919 191.873 630 189.467 624.984 184.755C619.969 180.042 617.461 173.124 617.461 164.301C617.461 155.478 619.969 148.559 624.984 143.847C630 139.135 635.919 136.728 642.64 136.728C646.853 136.728 650.865 137.731 654.677 139.836C658.489 141.842 661.599 144.95 664.107 149.061C666.514 153.172 667.818 158.285 667.818 164.301C667.818 170.417 666.614 175.53 664.107 179.541C661.699 183.652 658.489 186.66 654.677 188.765ZM627.492 225.662H654.677C662.201 225.662 667.016 227.166 670.226 230.375C673.436 233.583 675.041 237.894 675.041 242.908C675.041 250.227 672.132 256.243 666.314 260.755C660.495 265.267 652.671 267.573 643.041 267.573C634.614 267.573 627.592 265.668 622.476 262.058C617.36 258.449 614.752 252.934 614.752 245.916C614.752 241.504 615.956 237.393 618.364 233.784C620.771 230.174 623.68 227.567 627.492 225.662Z" fill="white"/>
<path d="M1082.35 224.327C1080.37 223.244 1078.88 221.669 1077.69 219.799C1076.6 217.831 1076 215.764 1076 213.5C1076 211.236 1076.6 209.071 1077.69 207.201C1078.78 205.232 1080.37 203.756 1082.35 202.673C1084.34 201.591 1086.52 201 1089 201C1091.48 201 1093.66 201.591 1095.65 202.673C1097.63 203.756 1099.12 205.331 1100.31 207.201C1101.4 209.169 1102 211.236 1102 213.5C1102 215.764 1101.4 217.929 1100.31 219.799C1099.22 221.768 1097.63 223.244 1095.65 224.327C1093.66 225.409 1091.48 226 1089 226C1086.62 226 1084.34 225.409 1082.35 224.327ZM1094.56 222.85C1096.24 221.965 1097.44 220.587 1098.43 219.012C1099.32 217.339 1099.82 215.469 1099.82 213.402C1099.82 211.335 1099.32 209.465 1098.43 207.791C1097.53 206.118 1096.24 204.839 1094.56 203.953C1092.87 203.067 1091.08 202.575 1089 202.575C1086.92 202.575 1085.13 203.067 1083.44 203.953C1081.76 204.839 1080.56 206.217 1079.57 207.791C1078.68 209.465 1078.18 211.335 1078.18 213.402C1078.18 215.469 1078.68 217.339 1079.57 219.012C1080.47 220.685 1081.76 221.965 1083.44 222.85C1085.13 223.736 1086.92 224.228 1089 224.228C1091.08 224.228 1092.97 223.835 1094.56 222.85ZM1083.64 219.406V218.52L1083.84 218.421H1084.44C1084.63 218.421 1084.83 218.323 1084.93 218.224C1085.13 218.028 1085.13 217.929 1085.13 217.732V208.579C1085.13 208.382 1085.03 208.185 1084.93 208.087C1084.73 207.89 1084.63 207.89 1084.44 207.89H1083.84L1083.64 207.791V206.906L1083.84 206.807H1089C1090.49 206.807 1091.58 207.102 1092.47 207.791C1093.37 208.48 1093.76 209.366 1093.76 210.547C1093.76 211.433 1093.47 212.319 1092.77 212.909C1092.08 213.598 1091.28 213.992 1090.29 214.091L1091.48 214.484L1093.76 218.126C1093.96 218.421 1094.16 218.52 1094.46 218.52H1095.05L1095.15 218.618V219.504L1095.05 219.602H1091.98L1091.78 219.504L1088.6 214.189H1087.81V217.732C1087.81 217.929 1087.91 218.126 1088.01 218.224C1088.21 218.421 1088.31 218.421 1088.5 218.421H1089.1L1089.3 218.52V219.406L1089.1 219.504H1083.84L1083.64 219.406ZM1088.7 213.008C1089.5 213.008 1090.19 212.811 1090.59 212.319C1090.98 211.925 1091.28 211.236 1091.28 210.449C1091.28 209.661 1091.08 209.071 1090.69 208.579C1090.29 208.087 1089.69 207.89 1089 207.89H1088.6C1088.4 207.89 1088.21 207.988 1088.11 208.087C1087.91 208.283 1087.91 208.382 1087.91 208.579V213.008H1088.7Z" fill="white"/>
</svg>
